icons/svg/video-layout-equal_12.svg

<svg width="12" height="12" viewBox="0 0 12 12" xmlns="http://www.w3.org/2000/svg"><title>format/video-layout-equal_12</title><path d="M10.5 10l-4 0 0-3.5 4.5 0 0 3c0 .276-.224.5-.5.5M1 9.5l0-3 4.5 0 0 3.5-4 0c-.276 0-.5-.224-.5-.5M1.5 2l4 0 0 3.5-4.5 0 0-3c0-.276.224-.5.5-.5m9.5.5l0 3-4.5 0 0-3.5 4 0c.276 0 .5.224.5.5M10.5 1l-9 0C.672 1 0 1.672 0 2.5l0 7c0 .828.672 1.5 1.5 1.5l9 0c.828 0 1.5-.672 1.5-1.5l0-7c0-.828-.672-1.5-1.5-1.5" fill="#000" fill-rule="evenodd"/></svg>

<?xml version="1.0" encoding="utf-8"?>
<!-- Generator: Adobe Illustrator 25.0.0, SVG Export Plug-In . SVG Version: 6.00 Build 0)  -->
<svg version="1.1" id="Layer_1" xmlns="http://www.w3.org/2000/svg" xmlns:xlink="http://www.w3.org/1999/xlink" x="0px" y="0px"
	 viewBox="0 0 12 12" style="enable-background:new 0 0 12 12;" xml:space="preserve">
<style type="text/css">
	.st0{fill-rule:evenodd;clip-rule:evenodd;fill:#121212;}
</style>
<path class="st0" d="M10.5,10h-4V6.5H11v3C11,9.8,10.8,10,10.5,10 M1,9.5v-3h4.5V10h-4C1.2,10,1,9.8,1,9.5 M1.5,2h4v3.5H1v-3
	C1,2.2,1.2,2,1.5,2 M11,2.5v3H6.5V2h4C10.8,2,11,2.2,11,2.5 M10.5,1h-9C0.7,1,0,1.7,0,2.5v7C0,10.3,0.7,11,1.5,11h9
	c0.8,0,1.5-0.7,1.5-1.5v-7C12,1.7,11.3,1,10.5,1"/>
</svg>
